_site/images/homepage/logs.svg

<svg fill="none" height="30" viewBox="0 0 30 30" width="30" xmlns="http://www.w3.org/2000/svg"><rect fill="#ffc634" height="30" rx="7" width="30"/><path clip-rule="evenodd" d="m7.33989 13.75c.5488-3.80949 3.82571-6.75 7.78511-6.75 4.3423 0 7.875 3.5332 7.875 7.875s-3.5327 7.875-7.875 7.875c-2.5263 0-4.9164-1.225-6.39405-3.2772l1.82595-1.314c1.0558 1.4656 2.7636 2.3412 4.5681 2.3412 3.1014 0 5.625-2.5236 5.625-5.625 0-3.1015-2.5236-5.62502-5.625-5.62502-2.7162 0-4.9886 1.93582-5.51129 4.50002h2.13629l-3.37499 3.375-3.37501-3.375zm6.66021 2.3247v-4.5747h2.25v3.3003l2.2665 1.3601-1.1579 1.9292z" fill="#fff" fill-rule="evenodd"/></svg>

<svg width="30" height="30" viewBox="0 0 30 30" fill="none" xmlns="http://www.w3.org/2000/svg">
<rect width="30" height="30" rx="7" fill="#FFC634"/>
<path fill-rule="evenodd" clip-rule="evenodd" d="M7.33989 13.75C7.88869 9.94051 11.1656 7 15.125 7C19.4673 7 23 10.5332 23 14.875C23 19.2168 19.4673 22.75 15.125 22.75C12.5987 22.75 10.2086 21.525 8.73095 19.4728L10.5569 18.1588C11.6127 19.6244 13.3205 20.5 15.125 20.5C18.2264 20.5 20.75 17.9764 20.75 14.875C20.75 11.7735 18.2264 9.24998 15.125 9.24998C12.4088 9.24998 10.1364 11.1858 9.61371 13.75H11.75L8.37501 17.125L5 13.75H7.33989ZM14.0001 16.0747V11.5L16.2501 11.5V14.8003L18.5166 16.1604L17.3587 18.0896L14.0001 16.0747Z" fill="white"/>
</svg>
